X:1
T:Title
%%score ( 1 2 ) { 3 | 4 }
L:1/8
Q:1/4=78
M:6/8
K:D
V:1 treble nm="Grand Piano, Soprano"
V:2 treble 
V:3 treble nm="Choir Pad, Rest By and By"
V:4 bass 
V:1
 [DF]/[EG]<[FA][=F^G]/ [^FA][Fd][=Ge] | [Fd] [FA]2- [FA] [DF]2 | [Fd][Ec][CE] [DF][EG][GB] | %3
w: By~John~Robson~Sweney * * * * * *|||
 [FA] [DF]2- [DF]2- [DF]/ z/ | [DF]/[EG]<[FA][=F^G]/ [^FA] [Fd]2 | [^Gd]/[Ac]<[=GB]^A/ [GB] [Ge]2 | %6
w: |||
 [Ge]/[Gd]/ [Ac]2 [Ac]/[Ac]/[Bd][Ac] | z A2- A3- | A3 z3 | z6 | z6 | [EG] [GB]2- [GB] [FA]2 | %12
w: ||||||
 [DF]/[EG]<[FA][=F^G]/ [^FA] [Fd]2 | [Ad]/[Ac]<[GB][G^A]/ [GB] [Ge]2 | [Gd]/[GB]<[FA][DF]/ [Fd]cB | %15
w: |||
 [Gc] [Fd]2- [Fd]3- | [Fd]3 z3 |] %17
w: ||
V:2
 x6 | x6 | x6 | x6 | x6 | x6 | x6 | [^GB] =G2- G G2- | G[FA]>[GB] [FA] [DF]2- | %9
 [DF][FA]>[GB] [FA] [Fd]2- | [Fd][Ec]>[DB] [CA][EG][^DF] | x6 | x6 | x6 | z3 z G2 | x6 | x6 |] %17
V:3
 A,D>D DA,[K:bass]A, | A, D2- D A,2 | A,A,A, A, A,2 | A, A,2- A,2- A,/ z/ | %4
 A,/A,<[K:treble]DD/ D A,2 | D/D<DC/ D[K:bass] B,2 | B,/B,/ E2 E/[K:treble]E/ E2 | D C2- C3- | %8
 CD>D D A,2- | A,D>D D[K:bass] A,2- | A,A,>A, A, A,2 | C D2- D2- D/ z/ | A,/A,<DD/ D A,2 | %13
 D/D<DC/ D[K:bass] B,2 | B,/D<DA,/ A, A,2 | A, A,2- A,3- | A,3 z3 |] %17
V:4
 D,D,>D, D,D,D, | D, D,2- D, D,2 | D,A,,A,, A,, A,,2 | A,, D,2- D,2- D,/ z/ | D,/D,<D,D,/ D, D,2 | %5
 F,/F,/ G,2 G, G,2 | G,/G,/ E,2 E,/E,/ E,2 | E, A,2- A,3- | A,D,>D, D, D,2- | D,D,>D, D, D,2- | %10
 D,3 z A,,2 | A,, D,2- D,2- D,/ z/ | D,/D,<D,D,/ D, D,2 | F,/F,<G,G,/ G, G,2 | G,/G,/ A,2 z A,,2 | %15
 A,, D,2- D,3- | D,3 z3 |] %17

